X: 20
T:The Bent Pin
% Nottingham Music Database
S:Trad, arr Phil Rowe
M:6/8
K:D
"A7"A|"D"D2F A2d| "G7"^A2B "D"=AFD|\
"G7"^A2B "D"=AFD|"E7" =FDF "A7"EDB,|
"D"D2^F A2d|\
"G7"^A2B "D"=AFD|"E7"=FDF "A7"EDB,|"D"D3 -D2::
"D"d|"G7"B2d e2=f| "D"^fdB A2d|"G7"B=Fd e2=f|"D"fdB A2d|
"G7"B=Fd e2=f\
| "D"=fdB "Bm"ABA|\
=FDF "A7"EDB,|"D"D3 -D2:|


